X: 0
T:Ffarwel Mari 
M:6/8  
L:1/8 
O:bennet 
Z:jig 
K:G 
                                    |:B2B AGF|D2E B,2B,|D2D G2A|B3 B3:|:B2B ABc|d2B G2B|AGF D2A|c2B A2F|G2A B2c|B2A G2A|A2G E2^D|E3 E3/|
